img/svg/vcru.svg

<svg viewBox="0 0 24 24" xmlns="http://www.w3.org/2000/svg">
    <path
        d="M18.8037 11.1835C20.4712 11.1835 21.7266 10.4888 22.6522 9.27939L21.4151 8.33552C21.1095 8.73824 20.7146 9.0645 20.2614 9.28857C19.8083 9.51264 19.3093 9.6284 18.8037 9.62674C16.994 9.62674 15.6827 8.1524 15.6827 6.34331C15.6827 4.53423 16.9726 2.97685 18.8553 2.97685C19.6922 2.97685 20.2837 3.17443 20.7997 3.49409V5.08482H22.3565V2.76543L22.0582 2.53071C21.2024 1.85741 19.8955 1.5 18.8031 1.5C16.1326 1.5 13.9604 3.67217 13.9604 6.3427C13.9604 9.01071 16.132 11.1835 18.8037 11.1835ZM22.0337 20.7355L21.9783 18.506V13.0656H18.7314V14.623H20.3385V18.3141C20.3385 19.9042 19.124 21.0299 17.8989 21.0299C16.6737 21.0299 16.0344 20.1805 16.0344 18.591V13.0649H13.0014V14.6223H14.3946V18.8609C14.3946 21.018 15.604 22.5043 17.7611 22.5043C19.0007 22.5043 19.9446 21.8165 20.5077 20.7562H20.5329L20.755 22.2387H23.25V20.7373H22.0356V20.7342L22.0337 20.7355ZM13.6017 1.72842H10.896L8.5426 8.56204H8.5061L6.1653 1.72842H3.28209V3.28643H4.90366L7.69437 11.0753H9.17688V11.0734L12.0872 3.28706H13.6005V1.72905L13.6017 1.72842ZM0.75 22.2589H2.35332V20.6562H0.750629V22.2589H0.75ZM6.94179 14.8715H6.92418L6.8235 13.0656H3.96168V14.4852H5.48446V20.7361H3.96168V22.2381H11.0344V20.7657H7.09659V16.9933C7.27467 15.6279 8.29845 14.4619 9.69538 14.4619H9.72055L9.69223 15.8575H11.249V13.0398H10.0182C8.60867 13.036 7.56286 13.7986 6.94117 14.8721L6.94179 14.8715Z"
        />
</svg>

<svg viewBox="0 0 24 24" xmlns="http://www.w3.org/2000/svg"><path d="M18.804 11.184c1.667 0 2.923-.695 3.848-1.905l-1.237-.943a3.265 3.265 0 01-2.611 1.29c-1.81 0-3.121-1.474-3.121-3.283s1.29-3.366 3.172-3.366c.837 0 1.429.197 1.945.517v1.59h1.556V2.766l-.298-.234c-.856-.674-2.163-1.031-3.255-1.031a4.848 4.848 0 00-4.843 4.843 4.848 4.848 0 004.844 4.84zm3.23 9.551l-.056-2.229v-5.44h-3.247v1.557h1.607v3.691c0 1.59-1.214 2.716-2.44 2.716-1.224 0-1.864-.85-1.864-2.439v-5.526h-3.033v1.557h1.394v4.239c0 2.157 1.209 3.643 3.366 3.643 1.24 0 2.184-.688 2.747-1.748h.025l.222 1.483h2.495v-1.502h-1.214v-.003l-.002.001zM13.602 1.728h-2.706L8.543 8.562h-.037l-2.34-6.834H3.281v1.558h1.622l2.79 7.79h1.483v-.003l2.91-7.786H13.6V1.73zM.75 22.258h1.603v-1.602H.751v1.603H.75zm6.192-7.386h-.018l-.1-1.806H3.962v1.42h1.522v6.25H3.962v1.502h7.072v-1.472H7.097v-3.773c.178-1.365 1.201-2.531 2.598-2.531h.026l-.029 1.396h1.557V13.04h-1.23c-1.41-.004-2.456.759-3.078 1.832z"/></svg>
